!!!COM: Palestrina, Giovanni Perluigi da
!!!OPR: Missa Ecce sacerdos magnus
!!!OMD: Sanctus
!!!OTL: Pleni
**kern	**kern	**kern
*Ibass	*Itenor	*Icalto
!Bassus	!Tenor	!Altus
*clefF4	*clefGv2	*clefG2
*k[]	*k[]	*k[]
*G:mix	*G:mix	*G:mix
*M4/2	*M4/2	*M4/2
=45	=45	=45
0r	0c	0r
=46	=46	=46
0r	1B	0g
.	1c	.
=47	=47	=47
0r	1d	1f#
.	2c	1g
.	2B	.
=48	=48	=48
0r	4A	1a
.	4B	.
.	4c	.
.	4A	.
.	4B	2g
.	4c	.
.	[2d	2f
=49	=49	=49
1r	4d]	1e
.	4c	.
.	1c	.
[1G	.	2.d
.	2B	.
.	.	4c
=50	=50	=50
1G]	1r	4d
.	.	4e
.	.	2.d
1F#	[1d	.
.	.	4c
.	.	2A
=51	=51	=51
1G	1d]	1B
1A	1c#	1A
=52	=52	=52
2G	1d	0r
2F	.	.
4E	1e	.
4F	.	.
4G	.	.
4E	.	.
=53	=53	=53
4F	2d	0r
4G	.	.
2.A	2c	.
.	1B	.
4G	.	.
2G	.	.
=54	=54	=54
2F	4A	1r
.	4B	.
2A	4c	.
.	4A	.
2.G	4B	[1g
.	4c	.
.	[2d	.
4F	.	.
=55	=55	=55
1E	2d]	1g]
.	2c#	.
2D	1d	1f#
2d	.	.
=56	=56	=56
2c	2r	1g
2B	1d	.
1A	.	1a
.	2c	.
=57	=57	=57
0r	2B	2g
.	4A	2f
.	4B	.
.	4c	4e
.	4A	4f
.	4B	4g
.	4c	4e
=58	=58	=58
1r	4d	4f
.	4e	4g
.	1f	1a
[1c	.	.
.	4e	4g
.	4d	4f
=59	=59	=59
1c]	2e	1g
.	2c	.
1B	1G	2g
.	.	2d
=60	=60	=60
1c	1r	4e
.	.	4f
.	.	4g
.	.	4e
1d	2r	4f
.	.	4g
.	2d	[2a
=61	=61	=61
2c	4e	2a]
.	4c	.
2B	4d	2g
.	4e	.
4A	2f	1a
4B	.	.
4c	2e	.
4A	.	.
=62	=62	=62
4B	2.d	2g
4c	.	.
1d	.	1f
.	4c	.
.	2B	.
[2c	2c	2e
=63	=63	=63
2c]	2G	2.d
2B	1d	.
.	.	4e
2.A	.	4f
.	.	4g
.	[2c	[2a
4G	.	.
=64	=64	=64
2F	2c]	2a]
2G	2B	1g
1D	1A	.
.	.	2f#
=65	=65	=65
2r	1G	2.g
1G	.	.
.	.	4f
.	1r	2e
2G	.	4d
.	.	4c
=66	=66	=66
2F#	2r	1d
2.G	1d	.
.	.	1r
4F	.	.
4D	2d	.
4F	.	.
=67	=67	=67
2E	2c#	0r
2D	2.d	.
1F	.	.
.	4c	.
.	4A	.
.	4c	.
=68	=68	=68
2G	2B	0r
2.A	2A	.
.	1c	.
4G	.	.
4F	.	.
4E	.	.
=69	=69	=69
2D	2d	2r
2C	2.e	1g
1E	.	.
.	4d	.
.	4B	2g
.	4c	.
=70	=70	=70
2D	2d	2f#
2C	2.e	2.g
1D	.	.
.	4d	4f
.	[2d	4d
.	.	4f
=71	=71	=71
1A	2d]	1e
.	2c#	.
1D	2.d	2d
.	.	2f
.	4c	.
=72	=72	=72
1r	2B	2g
.	2c	2.a
2r	1d	.
.	.	4g
[2d	.	4f
.	.	4e
=73	=73	=73
2d]	0r	4d
.	.	4e
2d	.	4f
.	.	4d
2c#	.	2e
[2d	.	2f
=74	=74	=74
4d]	1r	1e
4c	.	.
4A	.	.
4c	.	.
2B	2r	1d
2G	[2g	.
=75	=75	=75
2B	2g]	0r
2c	2g	.
2d	2f#	.
[2e	[2g	.
=76	=76	=76
4e]	4g]	1r
4d	4f	.
2.d	4d	.
.	4f	.
.	[1e	2r
4c	.	.
[2c	.	[2g
=77	=77	=77
2c]	2e]	2g]
2B	2d	2g
2A	2c	2f#
4G	4B	[2g
4F	4A	.
=78	=78	=78
2E	4B	4g]
.	4c	4f
2F	1d	4d
.	.	4f
2G	.	1e
2A	2c#	.
=79	=79	=79
1D	1d	2d
.	.	2f
2E	2r	2g
2F	[2d	2a
=80	=80	=80
1G	2d]	2.g
.	2d	.
.	.	4f
1r	2c#	2e
.	[2d	4d
.	.	4e
=81	=81	=81
1r	4d]	4f
.	4c	4g
.	4A	2a
.	4c	.
2r	2B	1d
[2G	2G	.
=82	=82	=82
2G]	1B	1g
2G	.	.
2F#	2A	2a
[2G	4G	[2b
.	4A	.
=83	=83	=83
4G]	4B	4b]
4F	4c	4a
4D	2d	2.a
4F	.	.
1E	4c	.
.	4B	4g
.	4A	[2g
.	4G	.
=84	=84	=84
1D	1A	2g]
.	.	2f
1G	1B	2e
.	.	2d
=85	=85	=85
0C	0c	0e
=86	=86	=86
[0G	[0B	[0d
=87	=87	=87
0G]	0B]	0d]
*-	*-	*-
!!!CDT: 1525/^1526/-1594/2/2
!!!OCY: Italia
!!!AGN: Mass (Tenor)
!!!AST: renaissance, vocal
!!!ASW: Antiphon
!!!PWK: Masses, Book I
!!!RNB: Cadence finals: D,C
!!!YOR: Le Opere Complete, v. 1, p. 1
!!!YOO: Rome, Italy: Fratelli Scalera
!!!END: 1992//
!!!EED: John Miller
!!!YEC: Copyright 2000, John Miller
!!!YEN: United States of America
!!!YEM: Rights to all derivative electronic formats reserved.
!!!YEM: Refer to licensing agreement for further details.
!!!YEM: This file must be accompanied by the licensing agreement.
!!!YEM: A copy of the licensing agreement may be found at http://www.music-cog.ohio-state.edu/HumdrumDatabases/Palestrina/license.txt
!!!EMD: converted to Humdrum by Bret Aarden
